public/assets/servicesRightArrow.svg

<svg width="100" height="100" viewBox="0 0 100 100" fill="none" xmlns="http://www.w3.org/2000/svg">
<path d="M98.4016 46.1146L62.2881 10.0003C61.2572 8.96941 59.8832 8.40356 58.4182 8.40356C56.9515 8.40356 55.5784 8.97023 54.5475 10.0003L51.2687 13.2799C50.2386 14.3092 49.6711 15.684 49.6711 17.1498C49.6711 18.6149 50.2386 20.036 51.2687 21.0652L72.3368 42.1797H5.40239C2.38453 42.1797 0 44.5423 0 47.561V52.1975C0 55.2162 2.38453 57.817 5.40239 57.817H72.5758L51.2695 79.0493C50.2394 80.0802 49.6719 81.4176 49.6719 82.8834C49.6719 84.3477 50.2394 85.7046 51.2695 86.7346L54.5483 90.0037C55.5792 91.0346 56.9524 91.5964 58.419 91.5964C59.884 91.5964 61.258 91.0273 62.2889 89.9964L98.4024 53.8829C99.4357 52.8487 100.004 51.4683 99.9999 50.0008C100.003 48.5284 99.4357 47.1472 98.4016 46.1146Z" fill="#B86767"/>
</svg>

<svg width="100" height="100" fill="none" xmlns="http://www.w3.org/2000/svg"><path d="M98.402 46.115 62.288 10a5.433 5.433 0 0 0-3.87-1.596c-1.466 0-2.84.566-3.87 1.596l-3.28 3.28a5.433 5.433 0 0 0-1.597 3.87c0 1.465.568 2.886 1.598 3.915L72.337 42.18H5.402C2.385 42.18 0 44.542 0 47.56v4.636c0 3.02 2.385 5.62 5.402 5.62h67.174L51.27 79.049a5.353 5.353 0 0 0-1.598 3.834c0 1.465.567 2.822 1.598 3.852l3.278 3.269a5.428 5.428 0 0 0 3.871 1.592c1.465 0 2.839-.569 3.87-1.6l36.113-36.113A5.436 5.436 0 0 0 100 50a5.436 5.436 0 0 0-1.598-3.886Z" fill="#B86767"/></svg>
